svgs/thin/truck-clock.svg

<svg xmlns="http://www.w3.org/2000/svg" viewBox="0 0 640 512"><!--! Font Awesome Pro 6.5.1 by @fontawesome - https://fontawesome.com License - https://fontawesome.com/license (Commercial License) Copyright 2023 Fonticons, Inc. --><path d="M64 16C37.5 16 16 37.5 16 64V352c0 26.5 21.5 48 48 48h3.3c10.4-36.9 44.4-64 84.7-64s74.2 27.1 84.7 64H400V64c0-26.5-21.5-48-48-48H64zm.4 400H64c-35.3 0-64-28.7-64-64V64C0 28.7 28.7 0 64 0H352c35.3 0 64 28.7 64 64V96h58.7c10.6 0 20.8 4.2 28.3 11.7L596.3 201c7.5 7.5 11.7 17.7 11.7 28.3V400h24c4.4 0 8 3.6 8 8s-3.6 8-8 8H575.6c.2 2.6 .4 5.3 .4 8c0 48.6-39.4 88-88 88s-88-39.4-88-88c0-2.7 .1-5.4 .4-8H400 239.6c.2 2.6 .4 5.3 .4 8c0 48.6-39.4 88-88 88s-88-39.4-88-88c0-2.7 .1-5.4 .4-8zM416 216H588c-.9-1.3-1.9-2.6-3-3.7L491.7 119c-4.5-4.5-10.6-7-17-7H416V216zm0 16V373.4c15.9-22.6 42.2-37.4 72-37.4c40.3 0 74.2 27.1 84.7 64H592V232H416zM224 424A72 72 0 1 0 80 424a72 72 0 1 0 144 0zm264 72a72 72 0 1 0 0-144 72 72 0 1 0 0 144zM208 272a96 96 0 1 0 0-192 96 96 0 1 0 0 192zm0-208a112 112 0 1 1 0 224 112 112 0 1 1 0-224zm0 56v56h40c4.4 0 8 3.6 8 8s-3.6 8-8 8H200c-4.4 0-8-3.6-8-8V120c0-4.4 3.6-8 8-8s8 3.6 8 8z"/></svg>

<svg xmlns="http://www.w3.org/2000/svg" viewBox="0 0 640 512"><!--! Font Awesome Pro 6.1.1 by @fontawesome - https://fontawesome.com License - https://fontawesome.com/license (Commercial License) Copyright 2022 Fonticons, Inc. --><path d="M208 176H248C252.4 176 256 179.6 256 184C256 188.4 252.4 192 248 192H200C195.6 192 192 188.4 192 184V120C192 115.6 195.6 112 200 112C204.4 112 208 115.6 208 120V176zM96 176C96 114.1 146.1 64 208 64C269.9 64 320 114.1 320 176C320 237.9 269.9 288 208 288C146.1 288 96 237.9 96 176zM208 272C261 272 304 229 304 176C304 122.1 261 80 208 80C154.1 80 112 122.1 112 176C112 229 154.1 272 208 272zM64.36 416H64C28.65 416 0 387.3 0 352V64C0 28.65 28.65 0 64 0H352C387.3 0 416 28.65 416 64V96H474.7C485.4 96 495.5 100.2 503 107.7L596.3 200.1C603.8 208.5 608 218.6 608 229.3V400H632C636.4 400 640 403.6 640 408C640 412.4 636.4 416 632 416H575.6C575.9 418.6 576 421.3 576 424C576 472.6 536.6 512 488 512C439.4 512 400 472.6 400 424C400 421.3 400.1 418.6 400.4 416H239.6C239.9 418.6 240 421.3 240 424C240 472.6 200.6 512 152 512C103.4 512 64 472.6 64 424C64 421.3 64.12 418.6 64.36 416H64.36zM16 64V352C16 378.5 37.49 400 64 400H67.31C77.76 363.1 111.7 336 152 336C192.3 336 226.2 363.1 236.7 400H400V64C400 37.49 378.5 16 352 16H64C37.49 16 16 37.49 16 64zM588 216C587.1 214.7 586.1 213.4 584.1 212.3L491.7 119C487.2 114.5 481.1 112 474.7 112H416V216H588zM416 232V373.4C431.9 350.8 458.2 336 488 336C528.3 336 562.2 363.1 572.7 400H592V232H416zM152 352C112.2 352 80 384.2 80 424C80 463.8 112.2 496 152 496C191.8 496 224 463.8 224 424C224 384.2 191.8 352 152 352zM488 496C527.8 496 560 463.8 560 424C560 384.2 527.8 352 488 352C448.2 352 416 384.2 416 424C416 463.8 448.2 496 488 496z"/></svg>
